packages/Snapp/src/DayIcon/index.svg

<?xml version="1.0" encoding="UTF-8"?>
<svg width="24px" height="24px" viewBox="0 0 24 24" version="1.1" xmlns="http://www.w3.org/2000/svg" xmlns:xlink="http://www.w3.org/1999/xlink">
    <title>Icons/24/Day</title>
    <g id="Icons/24/Day" stroke="none" stroke-width="1" fill="none" fill-rule="evenodd">
        <rect id="Container" fill-opacity="0" fill="#D8D8D8" fill-rule="nonzero" x="0" y="0" width="24" height="24"></rect>
        <path d="M12,17 C9.23857625,17 7,14.7614237 7,12 C7,9.23857625 9.23857625,7 12,7 C14.7614237,7 17,9.23857625 17,12 C17,14.7614237 14.7614237,17 12,17 Z M12,15 C13.6568542,15 15,13.6568542 15,12 C15,10.3431458 13.6568542,9 12,9 C10.3431458,9 9,10.3431458 9,12 C9,13.6568542 10.3431458,15 12,15 Z M11,3 C11,2.44771525 11.4477153,2 12,2 C12.5522847,2 13,2.44771525 13,3 L13,5 C13,5.55228475 12.5522847,6 12,6 C11.4477153,6 11,5.55228475 11,5 L11,3 Z M11,19 C11,18.4477153 11.4477153,18 12,18 C12.5522847,18 13,18.4477153 13,19 L13,21 C13,21.5522847 12.5522847,22 12,22 C11.4477153,22 11,21.5522847 11,21 L11,19 Z M4.51289322,5.92710678 C4.12236893,5.53658249 4.12236893,4.90341751 4.51289322,4.51289322 C4.90341751,4.12236893 5.53658249,4.12236893 5.92710678,4.51289322 L7.34710678,5.93289322 C7.73763107,6.32341751 7.73763107,6.95658249 7.34710678,7.34710678 C6.95658249,7.73763107 6.32341751,7.73763107 5.93289322,7.34710678 L4.51289322,5.92710678 Z M16.6528932,18.0671068 C16.2623689,17.6765825 16.2623689,17.0434175 16.6528932,16.6528932 C17.0434175,16.2623689 17.6765825,16.2623689 18.0671068,16.6528932 L19.4871068,18.0728932 C19.8776311,18.4634175 19.8776311,19.0965825 19.4871068,19.4871068 C19.0965825,19.8776311 18.4634175,19.8776311 18.0728932,19.4871068 L16.6528932,18.0671068 Z M3,13 C2.44771525,13 2,12.5522847 2,12 C2,11.4477153 2.44771525,11 3,11 L5,11 C5.55228475,11 6,11.4477153 6,12 C6,12.5522847 5.55228475,13 5,13 L3,13 Z M19,13 C18.4477153,13 18,12.5522847 18,12 C18,11.4477153 18.4477153,11 19,11 L21,11 C21.5522847,11 22,11.4477153 22,12 C22,12.5522847 21.5522847,13 21,13 L19,13 Z M5.92710678,19.4871068 C5.53658249,19.8776311 4.90341751,19.8776311 4.51289322,19.4871068 C4.12236893,19.0965825 4.12236893,18.4634175 4.51289322,18.0728932 L5.93289322,16.6528932 C6.32341751,16.2623689 6.95658249,16.2623689 7.34710678,16.6528932 C7.73763107,17.0434175 7.73763107,17.6765825 7.34710678,18.0671068 L5.92710678,19.4871068 Z M18.0671068,7.34710678 C17.6765825,7.73763107 17.0434175,7.73763107 16.6528932,7.34710678 C16.2623689,6.95658249 16.2623689,6.32341751 16.6528932,5.93289322 L18.0728932,4.51289322 C18.4634175,4.12236893 19.0965825,4.12236893 19.4871068,4.51289322 C19.8776311,4.90341751 19.8776311,5.53658249 19.4871068,5.92710678 L18.0671068,7.34710678 Z" id="Shape" fill="#404040" fill-rule="nonzero"></path>
    </g>
</svg>

<svg viewBox="0 0 24 24" xmlns="http://www.w3.org/2000/svg" fill="currentColor" focusable="false">
  <path d="M12 17a5 5 0 110-10 5 5 0 010 10zm0-2a3 3 0 100-6 3 3 0 000 6zM11 3a1 1 0 012 0v2a1 1 0 01-2 0V3zm0 16a1 1 0 012 0v2a1 1 0 01-2 0v-2zM4.513 5.927a1 1 0 011.414-1.414l1.42 1.42a1 1 0 01-1.414 1.414l-1.42-1.42zm12.14 12.14a1 1 0 011.414-1.414l1.42 1.42a1 1 0 01-1.414 1.414l-1.42-1.42zM3 13a1 1 0 010-2h2a1 1 0 010 2H3zm16 0a1 1 0 010-2h2a1 1 0 010 2h-2zM5.927 19.487a1 1 0 11-1.414-1.414l1.42-1.42a1 1 0 111.414 1.414l-1.42 1.42zm12.14-12.14a1 1 0 01-1.414-1.414l1.42-1.42a1 1 0 011.414 1.414l-1.42 1.42z" fill="none"/>
</svg>
